symbolic/32x32/apps/scid.svg

<svg xmlns="http://www.w3.org/2000/svg" width="32" height="32" version="1"><rect style="opacity:.2" width="30" height="30" x="-32" y="-31" rx="1.5" ry="1.5" transform="matrix(0 -1 -1 0 0 0)"/><rect style="fill:#af903d" width="30" height="30" x="-31" y="-31" rx="1.5" ry="1.5" transform="matrix(0 -1 -1 0 0 0)"/><path style="fill:#fff;opacity:.2" d="M2.5 1C1.669 1 1 1.669 1 2.5v1C1 2.669 1.669 2 2.5 2h27c.831 0 1.5.669 1.5 1.5v-1c0-.831-.669-1.5-1.5-1.5h-27z"/><path style="fill:#fece43" d="M2.5 1C1.669 1 1 1.669 1 2.5V7h6V1H2.5zM7 7v6h6V7H7zm6 0h6V1h-6v6zm6 0v6h6V7h-6zm6 0h6V2.5c0-.831-.669-1.5-1.5-1.5H25v6zm0 6v6h6v-6h-6zm0 6h-6v6h6v-6zm0 6v6h4.5c.831 0 1.5-.669 1.5-1.5V25h-6zm-6 0h-6v6h6v-6zm-6 0v-6H7v6h6zm-6 0H1v4.5c0 .831.669 1.5 1.5 1.5H7v-6zm0-6v-6H1v6h6zm6 0h6v-6h-6v6z"/><path style="opacity:.2" d="M1 7v1h6V7zm12 0v1h6V7zm12 0v1h6V7zM7 13v1h6v-1zm12 0v1h6v-1zM1 19v1h6v-1zm12 0v1h6v-1zm12 0v1h6v-1zM7 25v1h6v-1zm12 0v1h6v-1z"/><path style="opacity:.2;fill:#fff" d="M2.5 1C1.669 1 1 1.669 1 2.5v1C1 2.669 1.669 2 2.5 2H7V1H2.5zM13 1v1h6V1h-6zm12 0v1h4.5c.831 0 1.5.669 1.5 1.5v-1c0-.831-.669-1.5-1.5-1.5H25zM7 7v1h6V7H7zm12 0v1h6V7h-6zM1 13v1h6v-1H1zm12 0v1h6v-1h-6zm12 0v1h6v-1h-6zM7 19v1h6v-1H7zm12 0v1h6v-1h-6zM1 25v1h6v-1H1zm12 0v1h6v-1h-6zm12 0v1h6v-1h-6z"/><path style="opacity:.1;fill:none;stroke:#000;stroke-width:3;stroke-linecap:round;stroke-linejoin:round" d="M21.5 11.5h-11v6h11v5h-11"/><path style="fill:none;stroke:#434176;stroke-width:3;stroke-linecap:round;stroke-linejoin:round" d="M21.5 10.5h-11v6h11v5h-11"/></svg>

<svg xmlns="http://www.w3.org/2000/svg" width="32" height="32" version="1">
 <rect style="opacity:0.2" width="30" height="30" x="-32" y="-31" rx="1.5" ry="1.5" transform="matrix(0,-1,-1,0,0,0)"/>
 <rect style="fill:#af903d" width="30" height="30" x="-31" y="-31" rx="1.5" ry="1.5" transform="matrix(0,-1,-1,0,0,0)"/>
 <path style="fill:#ffffff;opacity:0.2" d="M 2.5 1 C 1.669 1 1 1.669 1 2.5 L 1 3.5 C 1 2.669 1.669 2 2.5 2 L 29.5 2 C 30.331 2 31 2.669 31 3.5 L 31 2.5 C 31 1.669 30.331 1 29.5 1 L 2.5 1 z"/>
 <path style="fill:#fece43" d="M 2.5 1 C 1.669 1 1 1.669 1 2.5 L 1 7 L 7 7 L 7 1 L 2.5 1 z M 7 7 L 7 13 L 13 13 L 13 7 L 7 7 z M 13 7 L 19 7 L 19 1 L 13 1 L 13 7 z M 19 7 L 19 13 L 25 13 L 25 7 L 19 7 z M 25 7 L 31 7 L 31 2.5 C 31 1.669 30.331 1 29.5 1 L 25 1 L 25 7 z M 25 13 L 25 19 L 31 19 L 31 13 L 25 13 z M 25 19 L 19 19 L 19 25 L 25 25 L 25 19 z M 25 25 L 25 31 L 29.5 31 C 30.331 31 31 30.331 31 29.5 L 31 25 L 25 25 z M 19 25 L 13 25 L 13 31 L 19 31 L 19 25 z M 13 25 L 13 19 L 7 19 L 7 25 L 13 25 z M 7 25 L 1 25 L 1 29.5 C 1 30.331 1.669 31 2.5 31 L 7 31 L 7 25 z M 7 19 L 7 13 L 1 13 L 1 19 L 7 19 z M 13 19 L 19 19 L 19 13 L 13 13 L 13 19 z"/>
 <path style="opacity:0.2" d="M 1,7 V 8 H 7 V 7 Z m 12,0 v 1 h 6 V 7 Z m 12,0 v 1 h 6 V 7 Z M 7,13 v 1 h 6 v -1 z m 12,0 v 1 h 6 V 13 Z M 1,19 v 1 h 6 v -1 z m 12,0 v 1 h 6 v -1 z m 12,0 v 1 h 6 V 19 Z M 7,25 v 1 h 6 v -1 z m 12,0 v 1 h 6 v -1 z"/>
 <path style="opacity:0.2;fill:#ffffff" d="M 2.5 1 C 1.669 1 1 1.669 1 2.5 L 1 3.5 C 1 2.669 1.669 2 2.5 2 L 7 2 L 7 1 L 2.5 1 z M 13 1 L 13 2 L 19 2 L 19 1 L 13 1 z M 25 1 L 25 2 L 29.5 2 C 30.331 2 31 2.669 31 3.5 L 31 2.5 C 31 1.669 30.331 1 29.5 1 L 25 1 z M 7 7 L 7 8 L 13 8 L 13 7 L 7 7 z M 19 7 L 19 8 L 25 8 L 25 7 L 19 7 z M 1 13 L 1 14 L 7 14 L 7 13 L 1 13 z M 13 13 L 13 14 L 19 14 L 19 13 L 13 13 z M 25 13 L 25 14 L 31 14 L 31 13 L 25 13 z M 7 19 L 7 20 L 13 20 L 13 19 L 7 19 z M 19 19 L 19 20 L 25 20 L 25 19 L 19 19 z M 1 25 L 1 26 L 7 26 L 7 25 L 1 25 z M 13 25 L 13 26 L 19 26 L 19 25 L 13 25 z M 25 25 L 25 26 L 31 26 L 31 25 L 25 25 z"/>
 <path style="opacity:0.1;fill:none;stroke:#000000;stroke-width:3;stroke-linecap:round;stroke-linejoin:round" d="m 21.5,11.49985 h -11 v 6 h 11 v 5 h -11"/>
 <path style="fill:none;stroke:#434176;stroke-width:3;stroke-linecap:round;stroke-linejoin:round" d="m 21.5,10.5 h -11 v 6 h 11 v 5 h -11"/>
</svg>
